X:1
T: The Grant's Rant
C:
R:Reel
Q: 232
K:D
M:4/4
L:1/8
|:FG|A3B AF DF|AF dB AF DF|GB GE FA FD|E2 E2 E3A|
FD FA d3f|ed cB A2 Bc|d2 cB c2 B2|A2 A2 A2 cd|
e3f ec Ac|ec af ed Ac|df dB ce cA|B2 B2 B2 A1/2B1/2c|
d3B AF DF|GA Bc d2 cB|BA GF EG FE|D2 D2 D2:|

